public/images/footer/twitter-social-icon.svg

<svg height="33" viewBox="0 0 29 33" width="29" xmlns="http://www.w3.org/2000/svg"><path d="m686.289419 1093 14.289419 8.25v16.5l-14.289419 8.25-14.289419-8.25v-16.5zm8.798972 11.57478.000711.00071c-.689292.2965-1.378584.48175-2.067876.55575.778478-.4668 1.304816-1.12644 1.579015-1.97892-.711589.42268-1.471328.71182-2.279219.86742-.711114-.75618-1.585656-1.13427-2.623627-1.13427-.992903.00047-1.839693.35081-2.540371 1.05102-.700678.7002-1.051016 1.54699-1.051016 2.54037 0 .26661.029649.5408.088948.82259-1.46777-.074-2.844694-.44284-4.130772-1.10652-1.286077-.66367-2.377654-1.5477-3.27473-2.65209-.326382.55599-.489573 1.16013-.489573 1.81242-.000475.61529.143978 1.18598.433357 1.71208.28938.5261.678619.95234 1.167717 1.27873-.578284-.0223-1.119329-.17434-1.623134-.45613v.04483c0 .86719.272302 1.62882.816904 2.28491.544603.65608 1.231997 1.06928 2.062184 1.23959-.311201.08159-.626198.12239-.94499.12239-.207309 0-.433357-.0185-.678144-.0555.229606.7187.652053 1.30979 1.26734 1.77327.615287.46349 1.312169.70258 2.090647.71729-1.304579 1.02279-2.790851 1.53418-4.458814 1.53418-.318792 0-.607934-.01494-.867427-.04483 1.667964 1.07497 3.506235 1.61246 5.514812 1.61246 1.275167-.00047 2.472296-.20257 3.591388-.60627 1.119091-.40371 2.075229-.94476 2.868413-1.62314s1.477021-1.45852 2.05151-2.34041c.574489-.8819 1.002628-1.80293 1.284418-2.7631.281789-.96017.422683-1.922.422683-2.88549 0-.20731-.003795-.36291-.011385-.4668.703998-.5114 1.304342-1.13024 1.801031-1.85654z" fill="#031e34" fill-rule="evenodd" transform="translate(-672 -1093)"/></svg>

<?xml version="1.0" encoding="UTF-8"?>
<svg width="29px" height="33px" viewBox="0 0 29 33" version="1.1" xmlns="http://www.w3.org/2000/svg" xmlns:xlink="http://www.w3.org/1999/xlink">
    <!-- Generator: Sketch 51 (57462) - http://www.bohemiancoding.com/sketch -->
    <title>twitter-social-icon</title>
    <desc>Created with Sketch.</desc>
    <defs></defs>
    <g id="Symbols" stroke="none" stroke-width="1" fill="none" fill-rule="evenodd">
        <g id="footer" transform="translate(-40.000000, -726.000000)" fill="#031E34">
            <g transform="translate(-632.000000, -367.000000)" id="twitter-social-icon">
                <path d="M686.289419,1093 L700.578838,1101.25 L700.578838,1117.75 L686.289419,1126 L672,1117.75 L672,1101.25 L686.289419,1093 Z M695.088391,1104.57478 L695.089102,1104.57549 C694.39981,1104.87199 693.710518,1105.05724 693.021226,1105.13124 C693.799704,1104.66444 694.326042,1104.0048 694.600241,1103.15232 C693.888652,1103.575 693.128913,1103.86414 692.321022,1104.01974 C691.609908,1103.26356 690.735366,1102.88547 689.697395,1102.88547 C688.704492,1102.88594 687.857702,1103.23628 687.157024,1103.93649 C686.456346,1104.63669 686.106008,1105.48348 686.106008,1106.47686 C686.106008,1106.74347 686.135657,1107.01766 686.194956,1107.29945 C684.727186,1107.22545 683.350262,1106.85661 682.064184,1106.19293 C680.778107,1105.52926 679.68653,1104.64523 678.789454,1103.54084 C678.463072,1104.09683 678.299881,1104.70097 678.299881,1105.35326 C678.299406,1105.96855 678.443859,1106.53924 678.733238,1107.06534 C679.022618,1107.59144 679.411857,1108.01768 679.900955,1108.34407 C679.322671,1108.32177 678.781626,1108.16973 678.277821,1107.88794 L678.277821,1107.93277 C678.277821,1108.79996 678.550123,1109.56159 679.094725,1110.21768 C679.639328,1110.87376 680.326722,1111.28696 681.156909,1111.45727 C680.845708,1111.53886 680.530711,1111.57966 680.211919,1111.57966 C680.00461,1111.57966 679.778562,1111.56116 679.533775,1111.52416 C679.763381,1112.24286 680.185828,1112.83395 680.801115,1113.29743 C681.416402,1113.76092 682.113284,1114.00001 682.891762,1114.01472 C681.587183,1115.03751 680.100911,1115.5489 678.432948,1115.5489 C678.114156,1115.5489 677.825014,1115.53396 677.565521,1115.50407 C679.233485,1116.57904 681.071756,1117.11653 683.080333,1117.11653 C684.3555,1117.11606 685.552629,1116.91396 686.671721,1116.51026 C687.790812,1116.10655 688.74695,1115.5655 689.540134,1114.88712 C690.333318,1114.20874 691.017155,1113.4286 691.591644,1112.54671 C692.166133,1111.66481 692.594272,1110.74378 692.876062,1109.78361 C693.157851,1108.82344 693.298745,1107.86161 693.298745,1106.89812 C693.298745,1106.69081 693.29495,1106.53521 693.28736,1106.43132 C693.991358,1105.91992 694.591702,1105.30108 695.088391,1104.57478 Z"></path>
            </g>
        </g>
    </g>
</svg>
